resources/images/hand.svg

<svg xmlns="http://www.w3.org/2000/svg" xmlns:xlink="http://www.w3.org/1999/xlink" preserveAspectRatio="none" width="285" height="427" viewBox="0 0 285 427"><defs><path fill="#EFBD9C" d="M176 204.3q7.75-17 11.45-35.15L176 204.3m-66.05-23.05v3.95q.1-2 .15-4-.05 0-.15.05m.8-38q-.05-2.7-.05-5.45-.35.1-.75.2v43.25q.1-.05.15-.05.8-18.9.65-37.95m-.95-33.45l.15 28.2q.4-.1.75-.2-.2-13.95-.9-28m-53.3 18.8q.5 1.5 1.05 2.95h.05q-.55-1.45-1.1-2.95m1.05 2.95q.25.65.55 1.3-.3-.7-.5-1.3h-.05m75.5-52.2q-1.65-3.7-3.6-5.8 2.2 2.5 3.6 6.6l.15 2.2-.15-3M109.6 80q.009-.489.1-.9-.05.1-.1.25V80m9.4-10.45q-2.3-.85-4.8 1.3-1.3 1.05-2.2 2.65 2.3-2.85 7-3.95M180.55 102l-6.75 22.4-9.6 28.75-13.1 32.65q-1.6 3.2-4.3 4.7 6.95.35 14.45 4.4-7.5-4.05-14.45-4.4-1.95.9-4.6 1-2.1-.25-3.35-1.45l-9.45.15 9.45-.15q-1.85-2-1.45-6.25v-41.5l-4.2-59.95-.15-2.2q-1.4-4.1-3.6-6.6-.85-.9-1.65-1.5-2.9-2.15-8.55-2.35-.15-.1-.25-.15-4.7 1.1-7 3.95-1.45 2.25-2.3 5.6-.091.411-.1.9v.15l.2 29.2v.45q.7 14.05.9 28 7.6-2.15 14.05.2-6.45-2.35-14.05-.2 0 2.75.05 5.45 10.8 5.6 19.1.8-8.3 4.8-19.1-.8.15 19.05-.65 37.95 6.1-2.25 13.35-2.3-7.25.05-13.35 2.3-.05 2-.15 4-2.25 7.3-11.55 3.45l-6.05-34.9q-8.8-14.8-13.1-30.3l-9.6-28.75q-6.1-5.65-14.05-3.2-7.45 4.5-6.35 13.45 1.85 7.35 4.15 14.7l3.1 8.95q.55 1.5 1.1 2.95 8.75-1.05 16.35-5.65-7.6 4.6-16.35 5.65.2.6.5 1.3 3 13.8 8.05 26.65 5.45-4.7 12.8-5.2-7.35.5-12.8 5.2.65 1.75 1.35 3.55 11.65-.65 18.95-5.85-7.3 5.2-18.95 5.85 3.35 16 9.25 30.2 8.5-.3 14.45-4.75-5.95 4.45-14.45 4.75.45 1.05.9 2.15.25 2.75-.15 4.85 7.9-4.95 14.85-6.05-6.95 1.1-14.85 6.05-1 4.1-4.9 6-9.1 3.6-15.4-3.85L47 186.75q-9.75-7.3-17.25-15.75-6.35-10.85-13.7-16.55-6-3.6-10.85 0-4.5 6.45 0 16.3l10.85 16q5.6 10.35 14.35 18.2.15.2.25.4 4.75-3.1 8.35-8.25-3.6 5.15-8.35 8.25 7 11.95 17.6 23.85 8.7-5 12.9-14-4.2 9-12.9 14L54 257.6q24.3-6.35 45.85-17.3 23.9-12.8 29.9-18.75-6 5.95-29.9 18.75Q78.3 251.25 54 257.6q7.7 34.1 24.65 62.05 2.6 4.3 7.25 7.3 9.2 5.75 23.05 6.1-13.85-.35-23.05-6.1 3.7 17.5 3.2 31.35h82.8q-2.6-11.1-3.4-26.9-16.75 7.95-27.4 7-11.5-.8-18.6-7.05 7.1 6.25 18.6 7.05 10.65.95 27.4-7 11.95-5.6 26.7-16.85l21.45-14.1q11-9.1 23.9-10.25 15.15-4.2 29.15-11.5 12.15-4.75 12.45-11.85-.85-9.15-10.25-14.7-17.15-5.45-41.15 8.6-3.8 13.9 5.25 25-9.05-11.1-5.25-25-15.5 7-29.15 7.7-3.65 16.15 4 25.2-7.65-9.05-4-25.2-10.05-.45-15-10.5l-7.4-17.6-2.85-12.45q-25.3 3.2-49.15 36.8-9.8 20.85-13.8 40.4 4-19.55 13.8-40.4 23.85-33.6 49.15-36.8-1.45-11.25-.35-23.6l11.45-35.15q4.85-15.05 8.1-32.65 4.95-16.25 7.3-30.95-1.35-8.45-9.25-10.85-10-.7-13.05 7.3m14.3 34.25q-5.45-.7-16.1-5.15 10.65 4.45 16.1 5.15m-21.05-8.15q5.4.55 11.7 3.15-6.3-2.6-11.7-3.15m13.4 40.3q-9.85-5.5-18.95-8.25 9.1 2.75 18.95 8.25M164.55 154q8.75.75 16.8 5.6-8.05-4.85-16.8-5.6M16.8 186.4q2.5-4.95 9.4-8.95-6.9 4-9.4 8.95m-2.25-2.6q1.85-4.25 5.75-8.1-3.9 3.85-5.75 8.1m8.15-6.7q3.2-3.65 7.7-4.75-4.5 1.1-7.7 4.75m88.3 10.75q8.25 1.25 10.35.75-2.1.5-10.35-.75m-.6-79.85q10.75 2.15 18.05-.35-7.3 2.5-18.05.35m-8.35 149.65q24.4-16.4 52.15-26.6-27.75 10.2-52.15 26.6m129.9 3.1q-.55 17.05 9.25 23.9-9.8-6.85-9.25-23.9m-40 12.4q5.35 20.15-1.6 36.3 6.95-16.15 1.6-36.3M28.6 202.2q3.05-6.3 11.85-10.85-8.8 4.55-11.85 10.85z" id="a"/><path id="b" stroke="#B87C5C" stroke-width="1" stroke-linejoin="round" stroke-linecap="round" fill="none" d="M194.85 136.25q-5.45-.7-16.1-5.15m-4.95-3q5.4.55 11.7 3.15m1.7 37.15q-9.85-5.5-18.95-8.25m-3.7-6.15q8.75.75 16.8 5.6m-107.4-33.7q-7.6 4.6-16.35 5.65h-.05M16.8 186.4q2.5-4.95 9.4-8.95m-11.65 6.35q1.85-4.25 5.75-8.1m2.4 1.4q3.2-3.65 7.7-4.75m35.75-12.85q5.45-4.7 12.8-5.2m31-16.3q.4-.1.75-.2m.3 50.05q8.25 1.25 10.35.75m-11.4-7.35q.1-.05.15-.05m36.7 9.3q6.95.35 14.45 4.4m-22.4-4.85l-9.45.15m-19.3-9q6.1-2.25 13.35-2.3m-12.75-41.1q7.6-2.15 14.05.2m-14 5.25q10.8 5.6 19.1.8M110.4 108q10.75 2.15 18.05-.35m-60.95 55.4q11.65-.65 18.95-5.85m-9.7 36.05q8.5-.3 14.45-4.75M54 257.6q24.3-6.35 45.85-17.3 23.9-12.8 29.9-18.75m-27.7 36.1q24.4-16.4 52.15-26.6M48.25 229.2q8.7-5 12.9-14m115.2 12.7q-25.3 3.2-49.15 36.8-9.8 20.85-13.8 40.4m117.35-44.35q-3.8 13.9 5.25 25m-4.05-25q-.55 17.05 9.25 23.9m-39.6-16.2q-3.65 16.15 4 25.2m-13.65-20.5q5.35 20.15-1.6 36.3M77.5 200.25q7.9-4.95 14.85-6.05m-63.75 8q3.05-6.3 11.85-10.85m-9.8 14q4.75-3.1 8.35-8.25"/><path id="c" stroke="#805137" stroke-width="2" stroke-linejoin="round" stroke-linecap="round" fill="none" d="M133.2 82.35l4.2 59.95v41.5q-.4 4.25 1.45 6.25 1.25 1.2 3.35 1.45 2.65-.1 4.6-1 2.7-1.5 4.3-4.7l13.1-32.65 9.6-28.75 6.75-22.4q3.05-8 13.05-7.3 7.9 2.4 9.25 10.85-2.35 14.7-7.3 30.95-3.25 17.6-8.1 32.65M176 204.3q-1.1 12.35.35 23.6l2.85 12.45 7.4 17.6q4.95 10.05 15 10.5 13.65-.7 29.15-7.7 24-14.05 41.15-8.6 9.4 5.55 10.25 14.7-.3 7.1-12.45 11.85-14 7.3-29.15 11.5-12.9 1.15-23.9 10.25l-21.45 14.1q-14.75 11.25-26.7 16.85.8 15.8 3.4 26.9m-82.8 0q.5-13.85-3.2-31.35-4.65-3-7.25-7.3Q61.7 291.7 54 257.6l-5.75-28.4q-10.6-11.9-17.6-23.85-.1-.2-.25-.4-8.75-7.85-14.35-18.2l-10.85-16q-4.5-9.85 0-16.3 4.85-3.6 10.85 0 7.35 5.7 13.7 16.55 7.5 8.45 17.25 15.75l10.2 15.65q6.3 7.45 15.4 3.85 3.9-1.9 4.9-6 .4-2.1.15-4.85-.45-1.1-.9-2.15-5.9-14.2-9.25-30.2-.7-1.8-1.35-3.55-5.05-12.85-8.05-26.65m-1.6-4.25l-3.1-8.95q-2.3-7.35-4.15-14.7Q48.15 96 55.6 91.5q7.95-2.45 14.05 3.2l9.6 28.75q4.3 15.5 13.1 30.3l6.05 34.9q9.3 3.85 11.55-3.45m-.15-75.4v-.425q-.012-.424-.1-.775-1.3-15.05-.1-28.45V80m.1-.9q.35-3.35 2.3-5.6m7-3.95q.55-.15 1.15-.25 5.7.05 9.3 4.25m3.75 8.8l-.15-2.2q-1.4-4.1-3.6-6.6M112 73.5q2.3-2.85 7-3.95M109.6 80q.009-.489.1-.9m-53.2 49.5q.55 1.5 1.1 2.95.2.6.5 1.3m52.6 4.95q-.2-13.95-.9-28m.3 71.4q.8-18.9.65-37.95-.05-2.7-.05-5.45m-.75 47.4q.1-2 .15-4m58.4 150.2q-16.75 7.95-27.4 7-11.5-.8-18.6-7.05m-13.55 1.7q-13.85-.35-23.05-6.1m101.55-157.8L176 204.3"/></defs><g><use xlink:href="#a"/><use xlink:href="#b"/><use xlink:href="#c"/></g></svg>

<svg xmlns="http://www.w3.org/2000/svg" version="1.1" xmlns:xlink="http://www.w3.org/1999/xlink" preserveAspectRatio="none" x="0px" y="0px" width="285px" height="427px" viewBox="0 0 285 427">
<defs>
<g id="Layer0_0_FILL">
<path fill="#EFBD9C" stroke="none" d="
M 176 204.3
Q 183.75 187.3 187.45 169.15
L 176 204.3
M 109.95 181.25
L 109.95 185.2
Q 110.05 183.2 110.1 181.2 110.05 181.2 109.95 181.25
M 110.75 143.25
Q 110.7 140.55 110.7 137.8 110.35 137.9 109.95 138
L 109.95 181.25
Q 110.05 181.2 110.1 181.2 110.9 162.3 110.75 143.25
M 109.8 109.8
L 109.95 138
Q 110.35 137.9 110.7 137.8 110.5 123.85 109.8 109.8
M 56.5 128.6
Q 57 130.1 57.55 131.55
L 57.6 131.55
Q 57.05 130.1 56.5 128.6
M 57.55 131.55
Q 57.8 132.2 58.1 132.85 57.8 132.15 57.6 131.55
L 57.55 131.55
M 133.05 79.35
Q 131.4 75.65 129.45 73.55 131.65 76.05 133.05 80.15
L 133.2 82.35 133.05 79.35
M 109.6 80
Q 109.60859375 79.511328125 109.7 79.1 109.65 79.2 109.6 79.35
L 109.6 80
M 119 69.55
Q 116.7 68.7 114.2 70.85 112.9 71.9 112 73.5 114.3 70.65 119 69.55
M 180.55 102
L 173.8 124.4 164.2 153.15 151.1 185.8
Q 149.5 189 146.8 190.5 153.75 190.85 161.25 194.9 153.75 190.85 146.8 190.5 144.85 191.4 142.2 191.5 140.1 191.25 138.85 190.05
L 129.4 190.2 138.85 190.05
Q 137 188.05 137.4 183.8
L 137.4 142.3 133.2 82.35 133.05 80.15
Q 131.65 76.05 129.45 73.55 128.6 72.65 127.8 72.05 124.9 69.9 119.25 69.7 119.1 69.6 119 69.55 114.3 70.65 112 73.5 110.55 75.75 109.7 79.1 109.60859375 79.511328125 109.6 80
L 109.6 80.15 109.8 109.35 109.8 109.8
Q 110.5 123.85 110.7 137.8 118.3 135.65 124.75 138 118.3 135.65 110.7 137.8 110.7 140.55 110.75 143.25 121.55 148.85 129.85 144.05 121.55 148.85 110.75 143.25 110.9 162.3 110.1 181.2 116.2 178.95 123.45 178.9 116.2 178.95 110.1 181.2 110.05 183.2 109.95 185.2 107.7 192.5 98.4 188.65
L 92.35 153.75
Q 83.55 138.95 79.25 123.45
L 69.65 94.7
Q 63.55 89.05 55.6 91.5 48.15 96 49.25 104.95 51.1 112.3 53.4 119.65
L 56.5 128.6
Q 57.05 130.1 57.6 131.55 66.35 130.5 73.95 125.9 66.35 130.5 57.6 131.55 57.8 132.15 58.1 132.85 61.1 146.65 66.15 159.5 71.6 154.8 78.95 154.3 71.6 154.8 66.15 159.5 66.8 161.25 67.5 163.05 79.15 162.4 86.45 157.2 79.15 162.4 67.5 163.05 70.85 179.05 76.75 193.25 85.25 192.95 91.2 188.5 85.25 192.95 76.75 193.25 77.2 194.3 77.65 195.4 77.9 198.15 77.5 200.25 85.4 195.3 92.35 194.2 85.4 195.3 77.5 200.25 76.5 204.35 72.6 206.25 63.5 209.85 57.2 202.4
L 47 186.75
Q 37.25 179.45 29.75 171 23.4 160.15 16.05 154.45 10.05 150.85 5.2 154.45 0.7 160.9 5.2 170.75
L 16.05 186.75
Q 21.65 197.1 30.4 204.95 30.55 205.15 30.65 205.35 35.4 202.25 39 197.1 35.4 202.25 30.65 205.35 37.65 217.3 48.25 229.2 56.95 224.2 61.15 215.2 56.95 224.2 48.25 229.2
L 54 257.6
Q 78.3 251.25 99.85 240.3 123.75 227.5 129.75 221.55 123.75 227.5 99.85 240.3 78.3 251.25 54 257.6 61.7 291.7 78.65 319.65 81.25 323.95 85.9 326.95 95.1 332.7 108.95 333.05 95.1 332.7 85.9 326.95 89.6 344.45 89.1 358.3
L 171.9 358.3
Q 169.3 347.2 168.5 331.4 151.75 339.35 141.1 338.4 129.6 337.6 122.5 331.35 129.6 337.6 141.1 338.4 151.75 339.35 168.5 331.4 180.45 325.8 195.2 314.55
L 216.65 300.45
Q 227.65 291.35 240.55 290.2 255.7 286 269.7 278.7 281.85 273.95 282.15 266.85 281.3 257.7 271.9 252.15 254.75 246.7 230.75 260.75 226.95 274.65 236 285.75 226.95 274.65 230.75 260.75 215.25 267.75 201.6 268.45 197.95 284.6 205.6 293.65 197.95 284.6 201.6 268.45 191.55 268 186.6 257.95
L 179.2 240.35 176.35 227.9
Q 151.05 231.1 127.2 264.7 117.4 285.55 113.4 305.1 117.4 285.55 127.2 264.7 151.05 231.1 176.35 227.9 174.9 216.65 176 204.3
L 187.45 169.15
Q 192.3 154.1 195.55 136.5 200.5 120.25 202.85 105.55 201.5 97.1 193.6 94.7 183.6 94 180.55 102
M 194.85 136.25
Q 189.4 135.55 178.75 131.1 189.4 135.55 194.85 136.25
M 173.8 128.1
Q 179.2 128.65 185.5 131.25 179.2 128.65 173.8 128.1
M 187.2 168.4
Q 177.35 162.9 168.25 160.15 177.35 162.9 187.2 168.4
M 164.55 154
Q 173.3 154.75 181.35 159.6 173.3 154.75 164.55 154
M 16.8 186.4
Q 19.3 181.45 26.2 177.45 19.3 181.45 16.8 186.4
M 14.55 183.8
Q 16.4 179.55 20.3 175.7 16.4 179.55 14.55 183.8
M 22.7 177.1
Q 25.9 173.45 30.4 172.35 25.9 173.45 22.7 177.1
M 111 187.85
Q 119.25 189.1 121.35 188.6 119.25 189.1 111 187.85
M 110.4 108
Q 121.15 110.15 128.45 107.65 121.15 110.15 110.4 108
M 102.05 257.65
Q 126.45 241.25 154.2 231.05 126.45 241.25 102.05 257.65
M 231.95 260.75
Q 231.4 277.8 241.2 284.65 231.4 277.8 231.95 260.75
M 191.95 273.15
Q 197.3 293.3 190.35 309.45 197.3 293.3 191.95 273.15
M 28.6 202.2
Q 31.65 195.9 40.45 191.35 31.65 195.9 28.6 202.2 Z"/>
</g>

<path id="Layer0_0_1_STROKES" stroke="#B87C5C" stroke-width="1" stroke-linejoin="round" stroke-linecap="round" fill="none" d="
M 194.85 136.25
Q 189.4 135.55 178.75 131.1
M 173.8 128.1
Q 179.2 128.65 185.5 131.25
M 187.2 168.4
Q 177.35 162.9 168.25 160.15
M 164.55 154
Q 173.3 154.75 181.35 159.6
M 73.95 125.9
Q 66.35 130.5 57.6 131.55
L 57.55 131.55
M 16.8 186.4
Q 19.3 181.45 26.2 177.45
M 14.55 183.8
Q 16.4 179.55 20.3 175.7
M 22.7 177.1
Q 25.9 173.45 30.4 172.35
M 66.15 159.5
Q 71.6 154.8 78.95 154.3
M 109.95 138
Q 110.35 137.9 110.7 137.8
M 111 187.85
Q 119.25 189.1 121.35 188.6
M 109.95 181.25
Q 110.05 181.2 110.1 181.2
M 146.8 190.5
Q 153.75 190.85 161.25 194.9
M 138.85 190.05
L 129.4 190.2
M 110.1 181.2
Q 116.2 178.95 123.45 178.9
M 110.7 137.8
Q 118.3 135.65 124.75 138
M 110.75 143.25
Q 121.55 148.85 129.85 144.05
M 110.4 108
Q 121.15 110.15 128.45 107.65
M 67.5 163.05
Q 79.15 162.4 86.45 157.2
M 76.75 193.25
Q 85.25 192.95 91.2 188.5
M 54 257.6
Q 78.3 251.25 99.85 240.3 123.75 227.5 129.75 221.55
M 102.05 257.65
Q 126.45 241.25 154.2 231.05
M 48.25 229.2
Q 56.95 224.2 61.15 215.2
M 176.35 227.9
Q 151.05 231.1 127.2 264.7 117.4 285.55 113.4 305.1
M 230.75 260.75
Q 226.95 274.65 236 285.75
M 231.95 260.75
Q 231.4 277.8 241.2 284.65
M 201.6 268.45
Q 197.95 284.6 205.6 293.65
M 191.95 273.15
Q 197.3 293.3 190.35 309.45
M 77.5 200.25
Q 85.4 195.3 92.35 194.2
M 28.6 202.2
Q 31.65 195.9 40.45 191.35
M 30.65 205.35
Q 35.4 202.25 39 197.1"/>

<path id="Layer0_0_2_STROKES" stroke="#805137" stroke-width="2" stroke-linejoin="round" stroke-linecap="round" fill="none" d="
M 133.2 82.35
L 137.4 142.3 137.4 183.8
Q 137 188.05 138.85 190.05 140.1 191.25 142.2 191.5 144.85 191.4 146.8 190.5 149.5 189 151.1 185.8
L 164.2 153.15 173.8 124.4 180.55 102
Q 183.6 94 193.6 94.7 201.5 97.1 202.85 105.55 200.5 120.25 195.55 136.5 192.3 154.1 187.45 169.15
M 176 204.3
Q 174.9 216.65 176.35 227.9
L 179.2 240.35 186.6 257.95
Q 191.55 268 201.6 268.45 215.25 267.75 230.75 260.75 254.75 246.7 271.9 252.15 281.3 257.7 282.15 266.85 281.85 273.95 269.7 278.7 255.7 286 240.55 290.2 227.65 291.35 216.65 300.45
L 195.2 314.55
Q 180.45 325.8 168.5 331.4 169.3 347.2 171.9 358.3
M 89.1 358.3
Q 89.6 344.45 85.9 326.95 81.25 323.95 78.65 319.65 61.7 291.7 54 257.6
L 48.25 229.2
Q 37.65 217.3 30.65 205.35 30.55 205.15 30.4 204.95 21.65 197.1 16.05 186.75
L 5.2 170.75
Q 0.7 160.9 5.2 154.45 10.05 150.85 16.05 154.45 23.4 160.15 29.75 171 37.25 179.45 47 186.75
L 57.2 202.4
Q 63.5 209.85 72.6 206.25 76.5 204.35 77.5 200.25 77.9 198.15 77.65 195.4 77.2 194.3 76.75 193.25 70.85 179.05 67.5 163.05 66.8 161.25 66.15 159.5 61.1 146.65 58.1 132.85
M 56.5 128.6
L 53.4 119.65
Q 51.1 112.3 49.25 104.95 48.15 96 55.6 91.5 63.55 89.05 69.65 94.7
L 79.25 123.45
Q 83.55 138.95 92.35 153.75
L 98.4 188.65
Q 107.7 192.5 109.95 185.2
M 109.8 109.8
L 109.8 109.375
Q 109.7876953125 108.9505859375 109.7 108.6 108.4 93.55 109.6 80.15
L 109.6 80
M 109.7 79.1
Q 110.05 75.75 112 73.5
M 119 69.55
Q 119.55 69.4 120.15 69.3 125.85 69.35 129.45 73.55
M 133.2 82.35
L 133.05 80.15
Q 131.65 76.05 129.45 73.55
M 112 73.5
Q 114.3 70.65 119 69.55
M 109.6 80
Q 109.60859375 79.511328125 109.7 79.1
M 56.5 128.6
Q 57.05 130.1 57.6 131.55 57.8 132.15 58.1 132.85
M 110.7 137.8
Q 110.5 123.85 109.8 109.8
M 110.1 181.2
Q 110.9 162.3 110.75 143.25 110.7 140.55 110.7 137.8
M 109.95 185.2
Q 110.05 183.2 110.1 181.2
M 168.5 331.4
Q 151.75 339.35 141.1 338.4 129.6 337.6 122.5 331.35
M 108.95 333.05
Q 95.1 332.7 85.9 326.95
M 187.45 169.15
L 176 204.3"/>
</defs>

<g transform="matrix( 1, 0, 0, 1, 0,0) ">
<use xlink:href="#Layer0_0_FILL"/>

<use xlink:href="#Layer0_0_1_STROKES"/>

<use xlink:href="#Layer0_0_2_STROKES"/>
</g>
</svg>
